X: 062
M: 2/4
L: 1/8
K: Em
|:\
E2GB | E2GB | cBAG | FBAF |\
E2GB | E2GB | gef^d | e2eg :|
|:\

